newicons/queuebee.svg

<?xml version="1.0" encoding="UTF-8" standalone="no"?>
<svg
   viewBox="0 0 48 48"
   version="1.1"
   id="svg1"
   sodipodi:docname="queuebee.svg"
   xml:space="preserve"
   inkscape:version="1.4.2 (ebf0e940d0, 2025-05-08)"
   xmlns:inkscape="http://www.inkscape.org/namespaces/inkscape"
   xmlns:sodipodi="http://sodipodi.sourceforge.net/DTD/sodipodi-0.dtd"
   xmlns="http://www.w3.org/2000/svg"
   xmlns:svg="http://www.w3.org/2000/svg"><sodipodi:namedview
     id="namedview1"
     pagecolor="#ffffff"
     bordercolor="#000000"
     borderopacity="0.25"
     inkscape:showpageshadow="2"
     inkscape:pageopacity="0.0"
     inkscape:pagecheckerboard="0"
     inkscape:deskcolor="#d1d1d1"
     inkscape:zoom="6.0520833"
     inkscape:cx="18.919105"
     inkscape:cy="20.240964"
     inkscape:window-width="1440"
     inkscape:window-height="832"
     inkscape:window-x="0"
     inkscape:window-y="0"
     inkscape:window-maximized="1"
     inkscape:current-layer="svg1" /><defs
     id="defs1"><inkscape:path-effect
       effect="fillet_chamfer"
       id="path-effect5"
       is_visible="true"
       lpeversion="1"
       nodesatellites_param="F,0,0,1,0,0,0,1 @ F,0,0,1,0,2.5499795,0,1 @ F,0,0,1,0,0,0,1"
       radius="0"
       unit="px"
       method="auto"
       mode="F"
       chamfer_steps="1"
       flexible="false"
       use_knot_distance="true"
       apply_no_radius="true"
       apply_with_radius="true"
       only_selected="false"
       hide_knots="false" /><inkscape:path-effect
       effect="fillet_chamfer"
       id="path-effect3"
       is_visible="true"
       lpeversion="1"
       nodesatellites_param="F,0,0,1,0,0,0,1 @ F,0,0,1,0,2.8091628,0,1 @ F,0,0,1,0,0,0,1"
       radius="0"
       unit="px"
       method="auto"
       mode="F"
       chamfer_steps="1"
       flexible="false"
       use_knot_distance="true"
       apply_no_radius="true"
       apply_with_radius="true"
       only_selected="false"
       hide_knots="false" /><inkscape:path-effect
       effect="fillet_chamfer"
       id="path-effect2"
       is_visible="true"
       lpeversion="1"
       nodesatellites_param="F,0,0,1,0,2.1726831,0,1 @ F,0,0,1,0,0,0,1 @ F,0,0,1,0,0,0,1 @ F,0,0,1,0,0,0,1 @ F,0,0,1,0,0,0,1 @ F,0,0,1,0,0,0,1"
       radius="0"
       unit="px"
       method="auto"
       mode="F"
       chamfer_steps="1"
       flexible="false"
       use_knot_distance="true"
       apply_no_radius="true"
       apply_with_radius="true"
       only_selected="false"
       hide_knots="false" /><style
       id="style1">.a{fill:none;stroke:#fff;stroke-linecap:round;stroke-linejoin:round;}</style><style
       id="style1-9">.a{fill:none;stroke:#fff;stroke-linecap:round;stroke-linejoin:round;}</style></defs><g
     id="g6"
     transform="matrix(0.90697679,0,0,0.90697679,2.232557,2.232557)"
     style="stroke-width:1.10256;stroke:#ffffff"><path
       id="path1"
       style="fill:none;stroke:#ffffff;stroke-width:1.10256;stroke-linecap:round;stroke-linejoin:round"
       inkscape:label="circle"
       d="M 24,2.5 A 21.5,21.5 0 0 0 2.5,24 21.5,21.5 0 0 0 24,45.5 h 17.638672 a 1.1675243,1.1675243 0 0 0 0.828125,-1.990234 L 38.681641,39.707031 A 21.5,21.5 0 0 0 45.5,24 21.5,21.5 0 0 0 24,2.5 Z" /><path
       id="path3"
       style="display:inline;fill:none;stroke:#ffffff;stroke-width:1.10256;stroke-linecap:round;stroke-linejoin:round"
       d="m 13.521484,9.4375 a 1.1290203,1.1290203 0 0 0 -1.041015,1.126953 V 24 A 11.520054,11.566265 0 0 0 24,35.566406 11.520054,11.566265 0 0 0 35.519531,24 11.520054,11.566265 0 0 0 24,12.433594 11.520054,11.566265 0 0 0 18.748047,13.705078 L 14.367188,9.7285156 A 1.1290203,1.1290203 0 0 0 13.521484,9.4375 Z" /><path
       style="opacity:1;fill:none;stroke:#ffffff;stroke-width:1.10256;stroke-linecap:round;stroke-linejoin:round"
       d="m 28.404203,13.312441 c -1.289213,2.566598 -3.557549,5.625014 -6.499433,8.566898 -2.941884,2.941884 -6.000301,5.210221 -8.566898,6.499434"
       id="path5" /><path
       style="opacity:1;fill:none;stroke:#ffffff;stroke-width:1.10256;stroke-linecap:round;stroke-linejoin:round"
       d="m 34.404773,19.036198 c -1.31696,2.621837 -3.634115,5.746076 -6.639315,8.751276 -3.0052,3.0052 -6.129441,5.322357 -8.751277,6.639317"
       id="path6" /></g></svg>

<?xml version="1.0" encoding="UTF-8"?><svg id="b" xmlns="http://www.w3.org/2000/svg" viewBox="0 0 48 48"><defs><style>.i{fill:none;stroke:#fff;stroke-linecap:round;stroke-linejoin:round;}</style></defs><g id="d"><path id="e" class="i" d="M24,2.5C12.1259,2.5,2.5,12.1259,2.5,24s9.6259,21.5,21.5,21.5h17.6387c.6448-.0002,1.1674-.523,1.1672-1.1678,0-.3082-.122-.6038-.3391-.8224l-3.7852-3.8027c4.3496-4.0657,6.8185-9.7531,6.8184-15.707,0-11.8741-9.6259-21.5-21.5-21.5Z"/><path id="f" class="i" d="M13.5215,9.4375c-.5881.046-1.0417.537-1.041,1.127v13.4355c0,6.3877,5.1573,11.5661,11.5195,11.5664,6.3622-.0003,11.5196-5.1787,11.5195-11.5664,0-6.3877-5.1573-11.5661-11.5195-11.5664-1.8263-.0001-3.6264.4357-5.252,1.2715l-4.3809-3.9766c-.2298-.2093-.5358-.3146-.8457-.291Z"/><path id="g" class="i" d="M28.4042,13.3124c-1.2892,2.5666-3.5575,5.625-6.4994,8.5669-2.9419,2.9419-6.0003,5.2102-8.5669,6.4994"/><path id="h" class="i" d="M34.4048,19.0362c-1.317,2.6218-3.6341,5.7461-6.6393,8.7513-3.0052,3.0052-6.1294,5.3224-8.7513,6.6393"/></g></svg>
